X:1
T:Look Up! Ye Weary Ones
T:Look Up! Ye Weary Ones
T:George Coles Stebbins
T:Frances Jane (Fanny) Crosby, 1890
T:Public Domain Courtesy of the Cyber Hymnal™
T:Public Domain Courtesy of the Cyber Hymnal™
C:George Coles Stebbins
Z:Public Domain
Z:Courtesy of the Cyber Hymnal™
%%score ( 1 2 ) ( 3 4 )
L:1/8
Q:1/4=105
M:6/8
K:G
V:1 treble 
V:2 treble 
V:3 bass 
V:4 bass 
V:1
 [DB] | [DB]2 [DB] (AE)[DF] | [DG]2 [DG] [B,D]2 [B,D] | [DG]2 [DG] (AB)[Dc] | [Dd]3- [Dd]2 [Gd] | %5
w: 1.~Look|up! look up! * ye|wear- y ones, Whose|skies are veiled * in|night; * For|
w: 2.~The|gifts you bring * with|lov- ing hand Your|Lord will not * dis-|own! * Their|
w: 3.~Re-|joice! the grave * is|o- ver- come, And|lo! the an- * gels|sing; * The|
 [Gc]2 [Gc] [GB]2 [DB] | [EA]2 [EA] [DG]2 [DG] | [DF]2 [DF] [^CE]2 [CA] | [DA]3- [DA]2 D | %9
w: He who knows the|path you tread Will|yet re- store the|light; * Look|
w: o- dors sweet to|heav’n shall rise Like|in- cense round His|throne; * Look|
w: grand- est tri- umph|ev- er known Has|come thro’ Christ our|king; * All|
 [DG]2 [DF] [DA]2 [DG] | [DB]3 [DG]2 D | [GB]2 [FA] [Ac]2 [GB] | [Gd]3 (Bc) ||"^Refrain" [Gd] | %14
w: up! and hail the|dawn- ing Of|hope’s tri- umph- ant|morn- ing. *||
w: up! and hail the|dawn- ing Of|joy’s tran- scend- ent|morn- ing. *|“Be-|
w: Heav’n pro- claims the|dawn- ing Of|love’s all glor- ious|morn- ing. *||
 [Ge]3 [Gc]2 [Ge] | [Gd]3 [DB]2 [Dd] | [EG]2 [EG] [FA]2 [FA] | [GB]3- ([GB][Ac])[Bd] | %18
w: ||||
w: hold Him! be-|hold Him! Your|Sav- ior lives to-|day; * * Be-|
w: ||||
 [ce]3 [Gc]2 [Ge] | [Gd]3 [DB]2 [DG] | (AB)[Ec] [DB]2 [CA] | [B,G]3- [B,G]2 |] %22
w: ||||
w: hold Him! be-|hold Him! The|clouds * have rolled a-|way.” *|
w: ||||
V:2
 x | x3 E2 x | x6 | x3 D2 x | x6 | x6 | x6 | x6 | x5 D | x6 | x5 D | x6 | x3 G2 || x | x6 | x6 | %16
 x6 | x6 | x6 | x6 | E2 x4 | x5 |] %22
V:3
 G, | G,2 G, [C,C]2 [D,C] | [G,,B,]2 [G,,B,] [G,,G,]2 [G,,G,] | [B,,G,]2 [B,,G,] (F,G,)[D,A,] | %4
 [G,B,]3- [G,B,]2 [=F,B,] | [E,C]2 [E,C] [D,D]2 [D,G,] | [C,C]2 [C,C] [B,,D]2 [B,,G,] | %7
 [A,,A,]2 [A,,A,] [A,,G,]2 [A,,G,] | [D,F,]3- [D,F,]2 [D,C] | [G,,B,]2 [G,,A,] [G,,C]2 [G,,B,] | %10
 [G,,G,]3 [G,,B,]2 [G,B,] | [G,D]2 [G,D] [G,D]2 [G,D] | [G,B,]3 (G,A,) || [G,B,] | %14
 [C,C]3 [C,E]2 [C,C] | [G,B,]3 G,2 [G,B,] | [E,B,]2 [E,B,] [D,D]2 [D,D] | [G,D]3- [G,D]2 [G,D] | %18
 [C,C]3 [C,E]2 [C,C] | [G,B,]3 G,2 G, | ([C,A,][B,,^G,])[A,,A,] D,2 [D,F,] | [G,,G,]3- [G,,G,]2 |] %22
V:4
 G, | G,2 G, x3 | x6 | x3 D,2 x | x6 | x6 | x6 | x6 | x6 | x6 | x6 | x6 | x3 G,2 || x | x6 | %15
 x3 G,2 x | x6 | x6 | x6 | x3 G,2 G, | x3 D,2 x | x5 |] %22

